X: 28
T: Croagh Patrick
N: The tune is a variant of Haste to the Wedding.
%C: _
%O: _
%R: jig
B: "Scots Reel & Country Dances for the Year 1769", R.Bremner, ed. p.112 #1
F: http://digital.nls.uk/special-collections-of-printed-music/pageturner.cfm?id=104993891
Z: 2016 John Chambers <jc:trillian.mit.edu>
M: 6/8
L: 1/8
K: D
% - - - - - - - - - - - - - - - - - - - - - - - - - - - - -
V: 1
A |\
AFG Aaf | Te>de fdB | AFA (B/c/d)F | EEE TE2A |\
AFG Aaf | (Te>de) fdB | AFA (B/c/d)F | DDD D2 :|
a |\
afa afa | bgb bgb | afa agf | eee e2(f/g/) |\
a3 Tf3 | Te>de fdB | AFA (f/g/a)f | ddd d2 :|
% - - - - - - - - - - - - - - - - - - - - - - - - - - - - -
V: 2 clef=bass middle=d
z |\
d3 d3 | c3 d2g | f3 g2^g | a3 A3 |\
d3 d3 | c3 d2g | d2f g2a | d3 d2 :|
z |\
d3 d3 | g3 g3 | f3 d3 | a3 A3 |\
d3 d3 | c3 d3 | a3 A3 | d3 d2 :|
% - - - - - - - - - - Dance description - - - - - - - - - -
%%begintext align
%% Cast of one Cu: four hands at bottom .|
%% cast up four hands at top :|
%% lead down the Middle up again and cast off .|.
%% right and left at Top :|:
%%endtext
%%sep 2 2 400
